app/assets/images/attention_concentration.svg

<?xml version="1.0" encoding="UTF-8" standalone="no"?>
<svg
   xmlns:dc="http://purl.org/dc/elements/1.1/"
   xmlns:cc="http://creativecommons.org/ns#"
   xmlns:rdf="http://www.w3.org/1999/02/22-rdf-syntax-ns#"
   xmlns:svg="http://www.w3.org/2000/svg"
   xmlns="http://www.w3.org/2000/svg"
   xmlns:sodipodi="http://sodipodi.sourceforge.net/DTD/sodipodi-0.dtd"
   xmlns:inkscape="http://www.inkscape.org/namespaces/inkscape"
   inkscape:version="1.0beta2 (2b71d25, 2019-12-03)"
   sodipodi:docname="attention_concentration.svg"
   id="svg18"
   version="1.1"
   fill="none"
   viewBox="0 0 64 64"
   height="64"
   width="64">
  <metadata
     id="metadata24">
    <rdf:RDF>
      <cc:Work
         rdf:about="">
        <dc:format>image/svg+xml</dc:format>
        <dc:type
           rdf:resource="http://purl.org/dc/dcmitype/StillImage" />
      </cc:Work>
    </rdf:RDF>
  </metadata>
  <defs
     id="defs22" />
  <sodipodi:namedview
     inkscape:current-layer="svg18"
     inkscape:window-maximized="0"
     inkscape:window-y="1128"
     inkscape:window-x="73"
     inkscape:cy="39.10977"
     inkscape:cx="23.783491"
     inkscape:zoom="6.7725498"
     showgrid="false"
     id="namedview20"
     inkscape:window-height="946"
     inkscape:window-width="1438"
     inkscape:pageshadow="2"
     inkscape:pageopacity="0"
     guidetolerance="10"
     gridtolerance="10"
     objecttolerance="10"
     borderopacity="1"
     inkscape:document-rotation="0"
     bordercolor="#666666"
     pagecolor="#ffffff" />
  <circle
     id="circle10"
     fill="#6E84FE"
     r="32"
     cy="32"
     cx="32" />
  <path
     sodipodi:nodetypes="ccsscc"
     inkscape:connector-curvature="0"
     id="path12"
     stroke-width="3"
     stroke="white"
     d="m 12.189,56.4052 c 0.5285,-1.8361 1.3213,-3.3134 2.3769,-4.3193 C 15.5905,51.1096 16.9401,50.5 18.7872,50.5 h 26.4256 c 1.8471,0 3.1967,0.6096 4.2213,1.5859 1.0556,1.0059 1.8483,2.483 2.3769,4.3191" />
  <circle
     id="circle14"
     stroke-width="3"
     stroke="white"
     r="14.5"
     cy="31"
     cx="32" />
  <path
     id="path16"
     fill="white"
     d="M22 29.5C21.1716 29.5 20.5 30.1716 20.5 31C20.5 31.8284 21.1716 32.5 22 32.5V29.5ZM42 32.5C42.8284 32.5 43.5 31.8284 43.5 31C43.5 30.1716 42.8284 29.5 42 29.5V32.5ZM37 31L35.6584 31.6708L36.0729 32.5H37V31ZM27 31L28.3416 30.3292L27.9271 29.5H27V31ZM30 37L28.6584 37.6708C28.9297 38.2135 29.5012 38.5392 30.1063 38.4962C30.7115 38.4532 31.2312 38.0499 31.423 37.4743L30 37ZM34 25L35.3416 24.3292C35.0703 23.7865 34.4988 23.4608 33.8937 23.5038C33.2885 23.5468 32.7688 23.9501 32.577 24.5257L34 25ZM37 32.5H42V29.5H37V32.5ZM22 32.5H27V29.5H22V32.5ZM25.6584 31.6708L28.6584 37.6708L31.3416 36.3292L28.3416 30.3292L25.6584 31.6708ZM31.423 37.4743L35.423 25.4743L32.577 24.5257L28.577 36.5257L31.423 37.4743ZM32.6584 25.6708L35.6584 31.6708L38.3416 30.3292L35.3416 24.3292L32.6584 25.6708Z" />
</svg>

<svg xmlns="http://www.w3.org/2000/svg" fill="none" height="64" width="64"><circle fill="#6E84FE" r="32" cy="32" cx="32"/><path stroke-width="3" stroke="#fff" d="M12.189 56.405c.528-1.836 1.321-3.313 2.377-4.32 1.024-.975 2.374-1.585 4.221-1.585h26.426c1.847 0 3.197.61 4.221 1.586 1.056 1.006 1.848 2.483 2.377 4.319"/><circle stroke-width="3" stroke="#fff" r="14.5" cy="31" cx="32"/><path fill="#fff" d="M22 29.5a1.5 1.5 0 000 3v-3zm20 3a1.5 1.5 0 000-3v3zM37 31l-1.342.67.415.83H37V31zm-10 0l1.342-.67-.415-.83H27V31zm3 6l-1.342.67a1.5 1.5 0 002.765-.196L30 37zm4-12l1.342-.67a1.5 1.5 0 00-2.765.196L34 25zm3 7.5h5v-3h-5v3zm-15 0h5v-3h-5v3zm3.658-.83l3 6 2.684-1.34-3-6-2.684 1.34zm5.765 5.804l4-12-2.846-.948-4 12 2.846.948zm1.235-11.803l3 6 2.684-1.342-3-6-2.684 1.342z"/></svg>
